; generated by PrusaSlicer 2.5.2+win64 on 2025-09-10 at 10:07:02 UTC

; 

; external perimeters extrusion width = 0.45mm
; perimeters extrusion width = 0.40mm
; infill extrusion width = 0.45mm
; solid infill extrusion width = 0.50mm
; top infill extrusion width = 0.45mm
; support material extrusion width = 0.42mm
; first layer extrusion width = 0.56mm

; external perimeters extrusion width = 0.45mm
; perimeters extrusion width = 0.40mm
; infill extrusion width = 0.45mm
; solid infill extrusion width = 0.50mm
; top infill extrusion width = 0.45mm
; support material extrusion width = 0.42mm
; first layer extrusion width = 0.56mm

; external perimeters extrusion width = 0.45mm
; perimeters extrusion width = 0.40mm
; infill extrusion width = 0.45mm
; solid infill extrusion width = 0.50mm
; top infill extrusion width = 0.45mm
; support material extrusion width = 0.42mm
; first layer extrusion width = 0.56mm

; external perimeters extrusion width = 0.45mm
; perimeters extrusion width = 0.40mm
; infill extrusion width = 0.45mm
; solid infill extrusion width = 0.50mm
; top infill extrusion width = 0.45mm
; support material extrusion width = 0.42mm
; first layer extrusion width = 0.56mm

M201 X2500 Y2500 Z800 E2500 ; sets maximum accelerations, mm/sec^2
M203 X300 Y250 Z8 E80 ; sets maximum feedrates, mm / sec
M204 P2500 R2500 T2500 ; sets acceleration (P, T) and retract acceleration (R), mm/sec^2
M205 X15.00 Y10.00 Z2.00 E10.00 ; sets the jerk limits, mm/sec
M205 S0 T0 ; sets the minimum extruding and travel feed rate, mm/sec
M107
;TYPE:Custom
G90 ; use absolute coordinates
M83 ; extruder relative mode
M104 S215 ; set extruder temp
M140 S60 ; set bed temp
M190 S60 ; wait for bed temp
M109 S215 ; wait for extruder temp
G28                                        ; move X/Y/Z to min endstops
G1 Z0.28                                   ; lift nozzle a bit 
G92 E0 
G1 Y3 F1800                                    ; zero the extruded length 
G1 X60  E25 F500                       ; Extrude 25mm of filament in a 5cm line. 
G92 E0                                     ; zero the extruded length again 
G1 E-2 F500                                ; Retract a little 
G1 X70 F4000                              ; Quickly wipe away from the filament line
M117
G21 ; set units to millimeters
G90 ; use absolute coordinates
M82 ; use absolute distances for extrusion
G92 E0
M107
;LAYER_CHANGE
;Z:0.28
;HEIGHT:0.28
; BEFORE_LAYER_CHANGE 0 @ 0.28mm
G1 E-2 F4800
G92 E0
G1 Z.28 F7200
; AFTER_LAYER_CHANGE 0 @ 0.28mm
G1 X76.767 Y103.916
G1 E2 F4800
M204 S2000
;TYPE:Skirt/Brim
;WIDTH:0.56
G1 F3000
G1 X77.152 Y103.633 E2.02782
G1 X77.757 Y103.365 E2.06634
G1 X78.35 Y103.25 E2.10145
G1 X92.714 Y103.259 E2.93736
G1 X93.72 Y103.529 E2.998
G1 X96.702 Y105.25 E3.19839
G1 X162.534 Y105.25 E7.02949
G1 X163.498 Y105.302 E7.08563
G1 X164.105 Y105.383 E7.12128
G1 X165.132 Y105.613 E7.18252
G1 X166.148 Y105.959 E7.245
G1 X167.121 Y106.415 E7.3075
G1 X168.011 Y106.957 E7.36819
G1 X168.832 Y107.586 E7.42837
G1 X169.595 Y108.313 E7.48969
G1 X170.091 Y108.882 E7.5336
G1 X170.606 Y109.583 E7.58423
G1 X170.999 Y110.223 E7.62794
G1 X171.467 Y111.17 E7.68941
G1 X171.8 Y112.07 E7.74528
G1 X172.048 Y113.026 E7.80272
G1 X172.165 Y113.712 E7.8432
G1 X172.245 Y114.667 E7.89897
G1 X172.225 Y115.692 E7.95864
G1 X172.154 Y116.367 E7.99819
G1 X171.96 Y117.363 E8.05722
G1 X171.669 Y118.315 E8.11516
G1 X171.385 Y119.014 E8.15902
G1 X170.984 Y119.805 E8.21066
G1 X170.422 Y120.682 E8.27128
G1 X170.046 Y121.175 E8.30739
G1 X169.237 Y122.049 E8.37666
G1 X168.571 Y122.628 E8.42801
G1 X168.07 Y123.003 E8.46443
G1 X167.237 Y123.521 E8.52153
G1 X166.615 Y123.839 E8.56215
G1 X166.067 Y124.073 E8.59683
G1 X165.118 Y124.392 E8.65513
G1 X164.522 Y124.537 E8.69082
G1 X163.484 Y124.7 E8.75197
G1 X162.534 Y124.75 E8.80734
G1 X96.699 Y124.75 E12.63857
G1 X93.685 Y126.482 E12.84088
G1 X92.681 Y126.75 E12.90135
G1 X78.349 Y126.75 E13.73538
G1 X77.725 Y126.625 E13.77244
G1 X77.32 Y126.458 E13.79791
G1 X76.966 Y126.247 E13.82188
G1 X76.417 Y125.735 E13.86558
G1 X76.134 Y125.35 E13.89338
G1 X75.867 Y124.745 E13.93187
G1 X75.752 Y124.153 E13.96696
G1 X75.752 Y105.848 E15.03223
G1 X75.876 Y105.223 E15.06928
G1 X76.044 Y104.819 E15.09475
G1 X76.254 Y104.465 E15.11873
G1 X76.726 Y103.96 E15.15895
M204 S2500
G1 X77.088 Y104.303 F7200
M204 S2000
G1 F3000
G1 X77.383 Y104.076 E15.1806
G1 X77.886 Y103.849 E15.21269
G1 X78.375 Y103.75 E15.24175
G1 X92.681 Y103.759 E16.07425
G1 X93.498 Y103.978 E16.12352
G1 X96.568 Y105.75 E16.3298
G1 X162.527 Y105.75 E20.1683
G1 X163.46 Y105.801 E20.22268
G1 X164.027 Y105.877 E20.25595
G1 X165.009 Y106.097 E20.31451
G1 X165.973 Y106.427 E20.3738
G1 X166.895 Y106.861 E20.4331
G1 X167.739 Y107.377 E20.49065
G1 X168.517 Y107.974 E20.54773
G1 X169.241 Y108.667 E20.60604
G1 X169.694 Y109.186 E20.64617
G1 X170.197 Y109.87 E20.69558
G1 X170.556 Y110.455 E20.73551
G1 X171.002 Y111.356 E20.79403
G1 X171.326 Y112.232 E20.84836
G1 X171.561 Y113.14 E20.90297
G1 X171.667 Y113.764 E20.93978
G1 X171.745 Y114.695 E20.99416
G1 X171.725 Y115.671 E21.05095
G1 X171.661 Y116.283 E21.08679
G1 X171.478 Y117.23 E21.1429
G1 X171.194 Y118.158 E21.19941
G1 X170.935 Y118.797 E21.23951
G1 X170.544 Y119.568 E21.28979
G1 X170.007 Y120.403 E21.34758
G1 X169.656 Y120.862 E21.38123
G1 X168.898 Y121.68 E21.44612
G1 X168.25 Y122.245 E21.49615
G1 X167.797 Y122.584 E21.52908
G1 X166.982 Y123.091 E21.58494
G1 X166.411 Y123.383 E21.62226
G1 X165.898 Y123.602 E21.65473
G1 X164.989 Y123.909 E21.71057
G1 X164.433 Y124.044 E21.74385
G1 X163.444 Y124.201 E21.80212
G1 X162.527 Y124.25 E21.85557
G1 X96.566 Y124.25 E25.69418
G1 X93.464 Y126.032 E25.90235
G1 X92.648 Y126.25 E25.95149
G1 X78.374 Y126.25 E26.78219
G1 X77.893 Y126.154 E26.8107
G1 X77.53 Y126.003 E26.8336
G1 X77.249 Y125.834 E26.85268
G1 X76.777 Y125.387 E26.8905
G1 X76.578 Y125.118 E26.90998
G1 X76.351 Y124.616 E26.94205
G1 X76.252 Y124.127 E26.97108
G1 X76.252 Y105.873 E28.03341
G1 X76.347 Y105.392 E28.06192
G1 X76.498 Y105.029 E28.08482
G1 X76.667 Y104.748 E28.1039
G1 X77.047 Y104.347 E28.13605
M204 S2500
G1 X77.407 Y104.693 F7200
M204 S2000
G1 F3000
G1 X77.653 Y104.498 E28.15434
G1 X78.061 Y104.318 E28.1803
G1 X78.4 Y104.25 E28.20037
G1 X92.648 Y104.259 E29.02953
G1 X93.277 Y104.427 E29.06744
G1 X96.434 Y106.25 E29.27962
G1 X162.521 Y106.25 E33.1255
G1 X163.423 Y106.3 E33.1781
G1 X163.949 Y106.371 E33.209
G1 X164.861 Y106.575 E33.26337
G1 X165.773 Y106.886 E33.31944
G1 X166.67 Y107.308 E33.3771
G1 X167.466 Y107.796 E33.43147
G1 X168.201 Y108.362 E33.48544
G1 X168.887 Y109.02 E33.54076
G1 X169.298 Y109.491 E33.57713
G1 X169.788 Y110.158 E33.62534
G1 X170.114 Y110.688 E33.66152
G1 X170.538 Y111.542 E33.71705
G1 X170.853 Y112.393 E33.76983
G1 X171.074 Y113.255 E33.8216
G1 X171.17 Y113.817 E33.8548
G1 X171.245 Y114.698 E33.90627
G1 X171.226 Y115.65 E33.96167
G1 X171.168 Y116.199 E33.99378
G1 X170.989 Y117.121 E34.04847
G1 X170.719 Y118.001 E34.10202
G1 X170.484 Y118.58 E34.1384
G1 X170.104 Y119.33 E34.18732
G1 X169.593 Y120.123 E34.24225
G1 X169.267 Y120.549 E34.27344
G1 X168.56 Y121.312 E34.33399
G1 X167.929 Y121.862 E34.38267
G1 X167.507 Y122.177 E34.41333
G1 X166.727 Y122.66 E34.46672
G1 X166.206 Y122.927 E34.5008
G1 X165.728 Y123.132 E34.53106
G1 X164.859 Y123.426 E34.58445
G1 X164.344 Y123.552 E34.61531
G1 X163.404 Y123.703 E34.67069
G1 X162.52 Y123.75 E34.72221
G1 X96.432 Y123.75 E38.56818
G1 X93.243 Y125.582 E38.78222
G1 X92.616 Y125.75 E38.82003
G1 X78.398 Y125.75 E39.6474
G1 X78.062 Y125.683 E39.66736
G1 X77.741 Y125.55 E39.68761
G1 X77.536 Y125.424 E39.70161
G1 X77.141 Y125.044 E39.73346
G1 X76.999 Y124.848 E39.74754
G1 X76.819 Y124.441 E39.77347
G1 X76.752 Y124.103 E39.79352
G1 X76.752 Y105.897 E40.85299
G1 X76.819 Y105.561 E40.87295
G1 X76.952 Y105.239 E40.89321
G1 X77.078 Y105.034 E40.9072
G1 X77.365 Y104.736 E40.93131
M204 S2500
G1 X77.721 Y105.085 F7200
M204 S2000
G1 F3000
G1 X77.917 Y104.923 E40.9461
G1 X78.233 Y104.788 E40.96608
G1 X78.424 Y104.75 E40.97741
G1 X92.615 Y104.758 E41.80325
G1 X93.055 Y104.877 E41.82981
G1 X96.3 Y106.75 E42.04787
G1 X162.514 Y106.75 E45.90115
G1 X163.385 Y106.798 E45.95193
G1 X163.87 Y106.865 E45.98044
G1 X164.738 Y107.06 E46.03219
G1 X165.598 Y107.354 E46.08506
G1 X166.443 Y107.753 E46.13949
G1 X167.192 Y108.214 E46.19068
G1 X167.884 Y108.749 E46.24155
G1 X168.532 Y109.372 E46.29388
G1 X168.901 Y109.795 E46.32653
G1 X169.379 Y110.446 E46.37353
G1 X169.671 Y110.921 E46.406
G1 X170.074 Y111.729 E46.45852
G1 X170.38 Y112.554 E46.50973
G1 X170.587 Y113.368 E46.55863
G1 X170.673 Y113.87 E46.58825
G1 X170.746 Y114.727 E46.63832
G1 X170.726 Y115.629 E46.69079
G1 X170.675 Y116.115 E46.71925
G1 X170.508 Y116.988 E46.77096
G1 X170.245 Y117.844 E46.82308
G1 X170.033 Y118.363 E46.85573
G1 X169.664 Y119.092 E46.90327
G1 X169.179 Y119.843 E46.95531
G1 X168.877 Y120.235 E46.98407
G1 X168.221 Y120.944 E47.04029
G1 X167.608 Y121.478 E47.08762
G1 X167.217 Y121.769 E47.11598
G1 X166.473 Y122.23 E47.16692
G1 X166 Y122.471 E47.1978
G1 X165.557 Y122.662 E47.22587
G1 X164.728 Y122.943 E47.27681
G1 X164.254 Y123.061 E47.30526
G1 X163.364 Y123.204 E47.35772
G1 X162.513 Y123.25 E47.40728
G1 X96.299 Y123.25 E51.26063
G1 X93.023 Y125.132 E51.48053
G1 X92.583 Y125.25 E51.50701
G1 X78.423 Y125.25 E52.33105
G1 X78.231 Y125.212 E52.34246
G1 X77.953 Y125.097 E52.35994
G1 X77.828 Y125.017 E52.36858
G1 X77.51 Y124.705 E52.39451
G1 X77.425 Y124.584 E52.4031
G1 X77.29 Y124.269 E52.42307
G1 X77.252 Y124.078 E52.43439
G1 X77.252 Y105.922 E53.49101
G1 X77.29 Y105.729 E53.50243
G1 X77.405 Y105.452 E53.5199
G1 X77.484 Y105.326 E53.52855
G1 X77.679 Y105.128 E53.54473
M204 S2500
G1 X78.031 Y105.48 F7200
M204 S2000
G1 F3000
G1 X78.17 Y105.355 E53.55563
G1 X78.448 Y105.25 E53.5729
G1 X92.582 Y105.258 E54.39541
G1 X92.834 Y105.326 E54.41059
G1 X96.166 Y107.25 E54.63455
G1 X162.507 Y107.25 E58.49522
G1 X163.347 Y107.297 E58.54418
G1 X163.791 Y107.359 E58.57026
G1 X164.614 Y107.544 E58.61939
G1 X165.422 Y107.822 E58.66909
G1 X166.194 Y108.187 E58.71877
G1 X166.898 Y108.618 E58.76683
G1 X167.567 Y109.136 E58.81608
G1 X168.177 Y109.724 E58.8654
G1 X168.504 Y110.099 E58.89436
G1 X168.97 Y110.734 E58.94016
G1 X169.229 Y111.155 E58.96894
G1 X169.611 Y111.916 E59.01848
G1 X169.899 Y112.691 E59.06658
G1 X170.1 Y113.482 E59.11408
G1 X170.178 Y113.943 E59.1413
G1 X170.247 Y114.755 E59.18875
G1 X170.227 Y115.606 E59.23828
G1 X170.179 Y116.051 E59.26433
G1 X170.019 Y116.879 E59.31339
G1 X169.77 Y117.686 E59.36252
G1 X169.583 Y118.147 E59.39149
G1 X169.224 Y118.854 E59.43764
G1 X168.765 Y119.562 E59.48676
G1 X168.489 Y119.92 E59.51308
G1 X167.883 Y120.576 E59.56504
G1 X167.287 Y121.095 E59.61099
G1 X166.928 Y121.361 E59.63701
G1 X166.219 Y121.799 E59.68551
G1 X165.794 Y122.015 E59.71326
G1 X165.386 Y122.192 E59.73913
G1 X164.597 Y122.461 E59.78764
G1 X164.163 Y122.569 E59.81369
G1 X163.323 Y122.706 E59.8632
G1 X162.507 Y122.75 E59.91079
G1 X96.166 Y122.75 E63.7715
G1 X92.802 Y124.683 E63.99727
G1 X92.55 Y124.75 E64.01242
G1 X78.448 Y124.75 E64.83313
G1 X78.129 Y124.618 E64.85319
G1 X77.883 Y124.372 E64.87341
G1 X77.751 Y124.054 E64.89347
G1 X77.751 Y105.946 E65.94724
G1 X77.856 Y105.669 E65.9645
G1 X77.989 Y105.522 E65.97599
M204 S2500
G1 X78.342 Y105.876 F7200
M204 S2000
G1 F3000
G1 X78.43 Y105.788 E65.98322
G1 X78.522 Y105.75 E65.98901
G1 X92.549 Y105.758 E66.80528
G1 X92.612 Y105.775 E66.80911
G1 X96.032 Y107.75 E67.03895
G1 X162.5 Y107.75 E70.90701
G1 X163.308 Y107.795 E70.95412
G1 X163.71 Y107.852 E70.97776
G1 X164.49 Y108.029 E71.0243
G1 X165.245 Y108.29 E71.07078
G1 X165.967 Y108.632 E71.11727
G1 X166.624 Y109.037 E71.16217
G1 X167.25 Y109.522 E71.20828
G1 X167.822 Y110.076 E71.2546
G1 X168.108 Y110.404 E71.27992
G1 X168.561 Y111.021 E71.32451
G1 X168.788 Y111.389 E71.34965
G1 X169.147 Y112.103 E71.39616
G1 X169.425 Y112.852 E71.44265
G1 X169.613 Y113.594 E71.48722
G1 X169.681 Y113.995 E71.51087
G1 X169.748 Y114.783 E71.55691
G1 X169.727 Y115.583 E71.60344
G1 X169.684 Y115.987 E71.62708
G1 X169.531 Y116.77 E71.67351
G1 X169.296 Y117.527 E71.71965
G1 X169.132 Y117.93 E71.74497
G1 X168.785 Y118.616 E71.78972
G1 X168.352 Y119.281 E71.83587
G1 X168.1 Y119.606 E71.85979
G1 X167.544 Y120.208 E71.90751
G1 X166.967 Y120.711 E71.95207
G1 X166.64 Y120.953 E71.97572
G1 X165.966 Y121.368 E72.0218
G1 X165.588 Y121.56 E72.04649
G1 X165.215 Y121.723 E72.07016
G1 X164.465 Y121.979 E72.11625
G1 X164.071 Y122.077 E72.13989
G1 X163.282 Y122.207 E72.18643
G1 X162.5 Y122.25 E72.23203
G1 X96.032 Y122.25 E76.1001
G1 X92.581 Y124.233 E76.33174
G1 X92.518 Y124.25 E76.33555
G1 X78.522 Y124.25 E77.15004
G1 X78.43 Y124.212 E77.15582
G1 X78.289 Y124.071 E77.1674
G1 X78.251 Y123.979 E77.17318
G1 X78.251 Y106.021 E78.2183
G1 X78.3 Y105.918 E78.22488
M204 S2500
G1 E76.82488 F4800
;WIPE_START
G1 F5760
G1 X78.43 Y105.788 E76.67898
G1 X78.522 Y105.75 E76.60019
G1 X78.958 Y105.75 E76.25488
;WIPE_END
G1 E76.22488 F4800
G92 E0
G1 X71.457 Y144.937 F7200
G1 E2 F4800
M204 S2000
G1 F3000
G1 X83.336 Y147.021 E2.70185
G1 X84.317 Y147.509 E2.76565
G1 X84.613 Y147.783 E2.78913
G1 X85.033 Y148.319 E2.82875
G1 X85.225 Y148.712 E2.85417
G1 X85.396 Y149.3 E2.8898
G1 X85.432 Y152.834 E3.0955
G1 X85.524 Y153.735 E3.1482
G1 X85.521 Y154.523 E3.19409
G1 X85.342 Y155.306 E3.2408
G1 X84.874 Y156.273 E3.30334
G1 X84.345 Y157.103 E3.36059
G1 X83.876 Y157.539 E3.39787
G1 X83.32 Y157.854 E3.43507
G1 X82.587 Y158.05 E3.47919
G1 X81.826 Y158.056 E3.52348
G1 X81.677 Y158.035 E3.53226
G1 X81.522 Y158.056 E3.54134
G1 X80.832 Y158.056 E3.5815
G1 X80.677 Y158.035 E3.5906
G1 X80.522 Y158.056 E3.5997
G1 X79.832 Y158.056 E3.63986
G1 X79.677 Y158.035 E3.64896
G1 X79.522 Y158.056 E3.65806
G1 X78.832 Y158.056 E3.69822
G1 X78.677 Y158.035 E3.70732
G1 X78.522 Y158.056 E3.71642
G1 X77.832 Y158.056 E3.75658
G1 X77.676 Y158.035 E3.76574
G1 X77.507 Y158.057 E3.77569
G1 X76.665 Y158.038 E3.82465
G1 X76.12 Y157.889 E3.85755
G1 X75.527 Y157.573 E3.89667
G1 X75.008 Y157.102 E3.93747
G1 X74.489 Y156.288 E3.99362
G1 X74.09 Y155.463 E4.04695
G1 X73.65 Y155.437 E4.07259
G1 X73.475 Y155.46 E4.08285
G1 X72.646 Y155.437 E4.13113
G1 X72.475 Y155.46 E4.14115
G1 X71.646 Y155.437 E4.18944
G1 X71.475 Y155.46 E4.19946
G1 X70.646 Y155.437 E4.24772
G1 X70.476 Y155.46 E4.25771
G1 X69.775 Y155.453 E4.2985
G1 X68.959 Y155.225 E4.34781
G1 X68.243 Y154.766 E4.39734
G1 X67.888 Y154.37 E4.42827
G1 X67.517 Y153.758 E4.46993
G1 X67.344 Y153.412 E4.49242
G1 X67.212 Y153.247 E4.50473
G1 X67.082 Y153.031 E4.51942
G1 X66.787 Y152.159 E4.57295
G1 X66.756 Y151.72 E4.59856
G1 X66.865 Y150.207 E4.68686
G1 X66.89 Y147.068 E4.86955
G1 X67.031 Y146.534 E4.90171
G1 X67.305 Y145.984 E4.93747
G1 X67.637 Y145.572 E4.96824
G1 X68.125 Y145.157 E5.00556
G1 X68.753 Y144.83 E5.04674
G1 X69.338 Y144.685 E5.08178
G1 X69.934 Y144.67 E5.11651
G1 X71.398 Y144.927 E5.20297
M204 S2500
G1 X71.311 Y145.419 F7200
M204 S2000
G1 F3000
G1 X83.214 Y147.507 E5.9062
G1 X84.007 Y147.902 E5.95777
G1 X84.236 Y148.112 E5.97583
G1 X84.599 Y148.568 E6.00975
G1 X84.752 Y148.874 E6.02967
G1 X84.906 Y149.406 E6.06191
G1 X84.932 Y152.845 E6.26206
G1 X84.95 Y153.146 E6.27964
G1 X85.025 Y153.755 E6.31531
G1 X85.027 Y154.44 E6.35521
G1 X84.861 Y155.165 E6.39847
G1 X84.431 Y156.042 E6.45529
G1 X83.981 Y156.759 E6.50461
G1 X83.559 Y157.151 E6.53808
G1 X83.108 Y157.4 E6.56807
G1 X82.496 Y157.557 E6.60484
G1 X81.851 Y157.556 E6.64238
G1 X81.677 Y157.528 E6.65264
G1 X81.5 Y157.557 E6.66308
G1 X80.855 Y157.557 E6.70062
G1 X80.677 Y157.528 E6.71108
G1 X80.5 Y157.557 E6.72154
G1 X79.855 Y157.557 E6.75907
G1 X79.677 Y157.528 E6.76953
G1 X79.5 Y157.557 E6.77999
G1 X78.855 Y157.557 E6.81753
G1 X78.677 Y157.528 E6.82799
G1 X78.5 Y157.557 E6.83845
G1 X77.855 Y157.557 E6.87598
G1 X77.678 Y157.528 E6.88642
G1 X77.493 Y157.557 E6.89727
G1 X76.711 Y157.539 E6.94282
G1 X76.287 Y157.417 E6.96847
G1 X75.795 Y157.15 E7.00108
G1 X75.374 Y156.759 E7.03449
G1 X74.92 Y156.036 E7.08418
G1 X74.403 Y154.96 E7.15367
G1 X73.811 Y154.952 E7.1881
G1 X73.661 Y154.928 E7.19695
G1 X73.456 Y154.96 E7.20901
G1 X72.811 Y154.952 E7.24655
