; generated by PrusaSlicer 2.5.2+win64 on 2025-09-17 at 08:22:29 UTC

; 

; external perimeters extrusion width = 0.45mm
; perimeters extrusion width = 0.40mm
; infill extrusion width = 0.45mm
; solid infill extrusion width = 0.50mm
; top infill extrusion width = 0.45mm
; support material extrusion width = 0.42mm
; first layer extrusion width = 0.56mm

M201 X2500 Y2500 Z800 E2500 ; sets maximum accelerations, mm/sec^2
M203 X300 Y250 Z8 E80 ; sets maximum feedrates, mm / sec
M204 P2500 R2500 T2500 ; sets acceleration (P, T) and retract acceleration (R), mm/sec^2
M205 X15.00 Y10.00 Z2.00 E10.00 ; sets the jerk limits, mm/sec
M205 S0 T0 ; sets the minimum extruding and travel feed rate, mm/sec
M107
;TYPE:Custom
G90 ; use absolute coordinates
M83 ; extruder relative mode
M104 S215 ; set extruder temp
M140 S60 ; set bed temp
M190 S60 ; wait for bed temp
M109 S215 ; wait for extruder temp
G28                                        ; move X/Y/Z to min endstops
G1 Z0.28                                   ; lift nozzle a bit 
G92 E0 
G1 Y3 F1800                                    ; zero the extruded length 
G1 X60  E25 F500                       ; Extrude 25mm of filament in a 5cm line. 
G92 E0                                     ; zero the extruded length again 
G1 E-2 F500                                ; Retract a little 
G1 X70 F4000                              ; Quickly wipe away from the filament line
M117
G21 ; set units to millimeters
G90 ; use absolute coordinates
M82 ; use absolute distances for extrusion
G92 E0
M107
;LAYER_CHANGE
;Z:0.28
;HEIGHT:0.28
; BEFORE_LAYER_CHANGE 0 @ 0.28mm
G1 E-2 F4800
G92 E0
G1 Z.28 F7200
; AFTER_LAYER_CHANGE 0 @ 0.28mm
G1 X105.599 Y63.789
G1 E2 F4800
M204 S2000
;TYPE:Skirt/Brim
;WIDTH:0.56
G1 F3000
G1 X106.182 Y62.85 E2.06434
G1 X106.51 Y62.406 E2.09645
G1 X106.864 Y61.973 E2.12899
G1 X107.327 Y61.47 E2.1688
G1 X107.733 Y61.078 E2.20164
G1 X108.158 Y60.708 E2.23442
G1 X108.621 Y60.346 E2.26861
G1 X109.096 Y60.016 E2.30227
G1 X109.662 Y59.668 E2.34091
G1 X110.17 Y59.395 E2.37449
G1 X110.683 Y59.154 E2.40749
G1 X111.215 Y58.938 E2.44089
G1 X111.747 Y58.753 E2.47365
G1 X112.315 Y58.59 E2.50804
G1 X112.887 Y58.459 E2.5422
G1 X113.538 Y58.349 E2.58063
G1 X114.096 Y58.287 E2.61334
G1 X114.659 Y58.254 E2.64611
G1 X115.334 Y58.255 E2.68544
G1 X116.372 Y58.338 E2.74604
G1 X117.105 Y58.457 E2.78921
G1 X117.654 Y58.582 E2.822
G1 X118.186 Y58.732 E2.85413
G1 X119.22 Y59.113 E2.91827
G1 X119.893 Y59.427 E2.96153
G1 X120.374 Y59.689 E2.99336
G1 X120.842 Y59.975 E3.02529
G1 X121.403 Y60.364 E3.06501
G1 X121.833 Y60.7 E3.09678
G1 X122.247 Y61.06 E3.12871
G1 X122.736 Y61.535 E3.16842
G1 X123.108 Y61.94 E3.20039
G1 X123.457 Y62.363 E3.2323
G1 X123.806 Y62.834 E3.26645
G1 X124.133 Y63.329 E3.30092
G1 X124.441 Y63.858 E3.33655
G1 X124.739 Y64.449 E3.37506
G1 X124.964 Y64.964 E3.40778
G1 X125.159 Y65.484 E3.44012
G1 X125.463 Y66.538 E3.50392
G1 X125.6 Y67.212 E3.54395
G1 X125.681 Y67.789 E3.5779
G1 X125.73 Y68.36 E3.61123
G1 X125.75 Y68.981 E3.64741
G1 X125.75 Y98.465 E5.36319
G1 X126.005 Y98.578 E5.37944
G1 X126.38 Y98.825 E5.40556
G1 X126.901 Y99.342 E5.44832
G1 X127.174 Y99.751 E5.47689
G1 X127.371 Y100.21 E5.506
G1 X127.5 Y100.847 E5.54378
G1 X127.474 Y124.381 E6.91334
G1 X127.366 Y124.799 E6.93849
G1 X127.145 Y125.299 E6.9703
G1 X126.845 Y125.722 E7.00046
G1 X126.39 Y126.162 E7.0373
G1 X125.937 Y126.454 E7.06867
G1 X125.432 Y126.652 E7.10024
G1 X124.901 Y126.748 E7.13161
G1 X121.544 Y126.743 E7.32701
G1 X121.016 Y126.637 E7.35834
G1 X120.572 Y126.458 E7.38622
G1 X120.163 Y126.206 E7.41414
G1 X119.655 Y125.722 E7.45494
G1 X119.343 Y125.274 E7.48675
G1 X119.111 Y124.729 E7.52123
G1 X119 Y124.151 E7.55545
G1 X119 Y111.748 E8.27727
G1 X111 Y111.748 E8.74288
G1 X111 Y124.151 E9.4647
G1 X110.889 Y124.73 E9.49898
G1 X110.708 Y125.179 E9.52715
G1 X110.466 Y125.574 E9.55407
G1 X109.941 Y126.121 E9.59825
G1 X109.476 Y126.433 E9.63078
G1 X108.916 Y126.658 E9.6659
G1 X108.395 Y126.748 E9.69672
G1 X104.868 Y126.723 E9.90199
G1 X104.447 Y126.613 E9.92726
G1 X103.901 Y126.366 E9.96214
G1 X103.527 Y126.094 E9.98905
G1 X103.148 Y125.715 E10.02028
G1 X102.842 Y125.273 E10.05157
G1 X102.625 Y124.776 E10.08308
G1 X102.5 Y124.15 E10.12022
G1 X102.5 Y100.846 E11.47639
G1 X102.629 Y100.21 E11.51415
G1 X102.826 Y99.751 E11.54325
G1 X103.099 Y99.342 E11.57183
G1 X103.62 Y98.825 E11.61458
G1 X103.995 Y98.578 E11.64071
G1 X104.25 Y98.465 E11.65696
G1 X104.25 Y68.981 E13.37274
G1 X104.27 Y68.36 E13.40889
G1 X104.316 Y67.817 E13.44063
G1 X104.39 Y67.273 E13.47256
G1 X104.521 Y66.602 E13.51236
G1 X104.668 Y66.031 E13.54666
G1 X104.847 Y65.469 E13.58102
G1 X105.041 Y64.952 E13.61313
G1 X105.261 Y64.447 E13.64518
G1 X105.571 Y63.842 E13.68476
M204 S2500
G1 X106.016 Y64.069 F7200
M204 S2000
G1 F3000
G1 X106.591 Y63.138 E13.74843
G1 X106.908 Y62.708 E13.77958
G1 X107.246 Y62.296 E13.81058
G1 X107.68 Y61.824 E13.84789
G1 X108.066 Y61.45 E13.87916
G1 X108.481 Y61.089 E13.91114
G1 X108.923 Y60.745 E13.94376
G1 X109.375 Y60.43 E13.97582
G1 X109.905 Y60.105 E14.01197
G1 X110.389 Y59.845 E14.04399
G1 X110.878 Y59.614 E14.07544
G1 X111.385 Y59.408 E14.10729
G1 X111.904 Y59.228 E14.13925
G1 X112.446 Y59.072 E14.17206
G1 X112.991 Y58.948 E14.20461
G1 X113.6 Y58.845 E14.24055
G1 X114.145 Y58.785 E14.27245
G1 X114.68 Y58.754 E14.30366
G1 X115.305 Y58.754 E14.33999
G1 X116.322 Y58.835 E14.39941
G1 X117.002 Y58.946 E14.43946
G1 X117.525 Y59.065 E14.4707
G1 X118.04 Y59.21 E14.50186
G1 X119.036 Y59.578 E14.56365
G1 X119.661 Y59.87 E14.60377
G1 X120.129 Y60.125 E14.63479
G1 X120.575 Y60.398 E14.66518
G1 X121.1 Y60.762 E14.70242
G1 X121.52 Y61.09 E14.7334
G1 X121.914 Y61.432 E14.7638
G1 X122.373 Y61.879 E14.80104
G1 X122.726 Y62.264 E14.83147
G1 X123.067 Y62.676 E14.8626
G1 X123.4 Y63.126 E14.89518
G1 X123.711 Y63.598 E14.92805
G1 X124.005 Y64.103 E14.96203
G1 X124.284 Y64.655 E14.99805
G1 X124.498 Y65.146 E15.02923
G1 X124.688 Y65.651 E15.0606
G1 X124.98 Y66.666 E15.12206
G1 X125.108 Y67.303 E15.1599
G1 X125.185 Y67.852 E15.19215
G1 X125.232 Y68.396 E15.22391
G1 X125.25 Y68.985 E15.25823
G1 X125.25 Y98.805 E16.99362
G1 X125.758 Y99.014 E17.02559
G1 X126.05 Y99.201 E17.04577
G1 X126.503 Y99.646 E17.08272
G1 X126.725 Y99.971 E17.10561
G1 X126.901 Y100.384 E17.13174
G1 X127 Y100.871 E17.1607
G1 X126.982 Y124.29 E18.52354
G1 X126.9 Y124.618 E18.5432
G1 X126.698 Y125.074 E18.5722
G1 X126.478 Y125.381 E18.59419
G1 X126.094 Y125.759 E18.62555
G1 X125.725 Y126 E18.6512
G1 X125.313 Y126.166 E18.67707
G1 X124.878 Y126.248 E18.70285
G1 X121.569 Y126.243 E18.89538
G1 X121.182 Y126.165 E18.91838
G1 X120.78 Y126.003 E18.94359
G1 X120.453 Y125.797 E18.96612
G1 X120.022 Y125.382 E19.00092
G1 X119.769 Y125.013 E19.02693
G1 X119.596 Y124.605 E19.05273
G1 X119.5 Y124.126 E19.08117
G1 X119.5 Y111.248 E19.83059
G1 X110.5 Y111.248 E20.3544
G1 X110.5 Y124.126 E21.10382
G1 X110.404 Y124.606 E21.13233
G1 X110.253 Y124.97 E21.15523
G1 X110.084 Y125.251 E21.17431
G1 X109.635 Y125.725 E21.21232
G1 X109.26 Y125.981 E21.23875
G1 X108.799 Y126.171 E21.26773
G1 X108.373 Y126.248 E21.29296
G1 X104.959 Y126.23 E21.49165
G1 X104.632 Y126.148 E21.51125
G1 X104.132 Y125.922 E21.5432
G1 X103.868 Y125.728 E21.56227
G1 X103.519 Y125.378 E21.59103
G1 X103.269 Y125.013 E21.61677
G1 X103.096 Y124.605 E21.64255
G1 X103 Y124.126 E21.67099
G1 X103 Y100.871 E23.0243
G1 X103.099 Y100.384 E23.05325
G1 X103.275 Y99.971 E23.07938
G1 X103.497 Y99.646 E23.10227
G1 X103.95 Y99.201 E23.13922
G1 X104.242 Y99.014 E23.1594
G1 X104.75 Y98.805 E23.19137
G1 X104.75 Y68.985 E24.92676
G1 X104.768 Y68.396 E24.96106
G1 X104.813 Y67.866 E24.99202
G1 X104.884 Y67.348 E25.02242
G1 X105.007 Y66.72 E25.0597
G1 X105.147 Y66.176 E25.09239
G1 X105.317 Y65.638 E25.12519
G1 X105.502 Y65.146 E25.15577
G1 X105.717 Y64.654 E25.18701
G1 X105.988 Y64.123 E25.22176
M204 S2500
G1 X106.433 Y64.35 F7200
M204 S2000
G1 F3000
G1 X106.999 Y63.427 E25.28477
G1 X107.299 Y63.019 E25.3142
G1 X107.628 Y62.618 E25.3444
G1 X108.033 Y62.178 E25.3792
G1 X108.409 Y61.814 E25.40966
G1 X108.804 Y61.471 E25.44008
G1 X109.225 Y61.144 E25.47112
G1 X109.655 Y60.845 E25.50159
G1 X110.148 Y60.542 E25.53528
G1 X110.608 Y60.294 E25.56571
G1 X111.085 Y60.069 E25.59637
G1 X111.567 Y59.873 E25.62665
G1 X112.061 Y59.703 E25.65705
G1 X112.576 Y59.555 E25.68828
G1 X113.095 Y59.437 E25.71921
G1 X113.676 Y59.339 E25.75349
G1 X114.193 Y59.282 E25.78377
G1 X114.701 Y59.253 E25.81341
G1 X115.294 Y59.254 E25.84791
G1 X116.272 Y59.333 E25.90497
G1 X116.899 Y59.436 E25.94196
G1 X117.396 Y59.548 E25.97162
G1 X117.895 Y59.688 E26.00181
G1 X118.853 Y60.043 E26.06124
G1 X119.429 Y60.313 E26.09826
G1 X119.874 Y60.554 E26.12771
G1 X120.307 Y60.82 E26.15731
G1 X120.798 Y61.161 E26.19208
G1 X121.197 Y61.472 E26.22151
G1 X121.581 Y61.805 E26.25111
G1 X122.009 Y62.222 E26.28588
G1 X122.354 Y62.597 E26.31551
G1 X122.677 Y62.989 E26.34511
G1 X122.994 Y63.418 E26.37613
G1 X123.29 Y63.867 E26.40739
G1 X123.569 Y64.347 E26.43973
G1 X123.828 Y64.861 E26.47326
G1 X124.037 Y65.34 E26.50364
G1 X124.216 Y65.817 E26.53329
G1 X124.496 Y66.794 E26.59241
G1 X124.617 Y67.394 E26.62804
G1 X124.689 Y67.914 E26.65861
G1 X124.733 Y68.431 E26.68881
G1 X124.75 Y68.989 E26.72127
G1 X124.75 Y99.222 E28.48068
G1 X125.135 Y99.299 E28.50357
G1 X125.544 Y99.467 E28.52929
G1 X125.753 Y99.604 E28.54385
G1 X126.108 Y99.952 E28.57274
G1 X126.276 Y100.193 E28.58983
G1 X126.432 Y100.557 E28.61287
G1 X126.5 Y100.896 E28.633
G1 X126.489 Y124.203 E29.98938
G1 X126.433 Y124.438 E30.0034
G1 X126.252 Y124.847 E30.02944
G1 X126.111 Y125.042 E30.04344
G1 X125.794 Y125.358 E30.06948
G1 X125.509 Y125.549 E30.08944
G1 X125.189 Y125.681 E30.10959
G1 X124.853 Y125.748 E30.12957
G1 X121.595 Y125.743 E30.31912
G1 X121.348 Y125.693 E30.3338
G1 X120.99 Y125.548 E30.35626
G1 X120.746 Y125.392 E30.37318
G1 X120.392 Y125.045 E30.40201
G1 X120.2 Y124.758 E30.42211
G1 X120.067 Y124.438 E30.44226
G1 X120 Y124.101 E30.46222
G1 X120 Y110.748 E31.23931
G1 X110 Y110.748 E31.82129
G1 X110 Y124.101 E32.59838
G1 X109.933 Y124.438 E32.61834
G1 X109.8 Y124.759 E32.63859
G1 X109.674 Y124.964 E32.65259
G1 X109.295 Y125.357 E32.68433
G1 X109.006 Y125.55 E32.70454
G1 X108.639 Y125.697 E32.72758
G1 X108.352 Y125.748 E32.74453
G1 X105.045 Y125.737 E32.93697
G1 X104.811 Y125.681 E32.951
G1 X104.402 Y125.5 E32.97704
G1 X104.207 Y125.359 E32.99104
G1 X103.89 Y125.043 E33.01708
G1 X103.7 Y124.758 E33.03704
G1 X103.567 Y124.438 E33.05719
G1 X103.5 Y124.101 E33.07715
G1 X103.5 Y100.896 E34.4276
G1 X103.568 Y100.557 E34.44773
G1 X103.724 Y100.193 E34.47078
G1 X103.892 Y99.952 E34.48786
G1 X104.247 Y99.604 E34.51676
G1 X104.456 Y99.467 E34.53131
G1 X104.865 Y99.299 E34.55703
G1 X105.25 Y99.222 E34.57992
G1 X105.25 Y68.989 E36.33933
G1 X105.267 Y68.431 E36.3718
G1 X105.309 Y67.927 E36.40123
G1 X105.379 Y67.423 E36.43083
G1 X105.493 Y66.837 E36.46561
G1 X105.626 Y66.319 E36.49668
G1 X105.787 Y65.808 E36.52791
G1 X105.968 Y65.328 E36.55771
G1 X106.172 Y64.861 E36.58737
G1 X106.406 Y64.403 E36.61732
M204 S2500
G1 X106.85 Y64.63 F7200
M204 S2000
G1 F3000
G1 X107.408 Y63.715 E36.67966
G1 X107.698 Y63.321 E36.7081
G1 X108.01 Y62.941 E36.73674
G1 X108.386 Y62.532 E36.76908
G1 X108.743 Y62.187 E36.79796
G1 X109.116 Y61.861 E36.8268
G1 X109.516 Y61.55 E36.85625
G1 X109.934 Y61.26 E36.8859
G1 X110.392 Y60.979 E36.91715
G1 X110.828 Y60.743 E36.946
G1 X111.28 Y60.53 E36.97508
G1 X111.749 Y60.339 E37.00457
G1 X112.217 Y60.177 E37.03338
G1 X112.707 Y60.038 E37.06302
G1 X113.198 Y59.926 E37.09235
G1 X113.738 Y59.835 E37.12418
G1 X114.228 Y59.781 E37.15288
G1 X114.723 Y59.753 E37.18172
G1 X115.264 Y59.753 E37.21322
G1 X116.221 Y59.83 E37.26908
G1 X116.796 Y59.925 E37.30299
G1 X117.279 Y60.034 E37.33184
G1 X117.75 Y60.167 E37.36028
G1 X118.669 Y60.508 E37.41735
G1 X119.197 Y60.756 E37.45128
G1 X119.629 Y60.991 E37.47992
G1 X120.04 Y61.243 E37.50796
G1 X120.496 Y61.559 E37.54027
G1 X120.884 Y61.862 E37.56891
G1 X121.248 Y62.178 E37.59695
G1 X121.646 Y62.565 E37.62928
G1 X121.972 Y62.92 E37.65735
G1 X122.288 Y63.302 E37.68617
G1 X122.588 Y63.709 E37.7156
G1 X122.868 Y64.135 E37.74525
G1 X123.132 Y64.592 E37.77596
G1 X123.373 Y65.068 E37.80703
G1 X123.571 Y65.522 E37.83585
G1 X123.745 Y65.983 E37.86452
G1 X124.013 Y66.921 E37.92128
G1 X124.125 Y67.484 E37.95469
G1 X124.193 Y67.976 E37.98359
G1 X124.234 Y68.466 E38.01222
G1 X124.25 Y68.992 E38.04286
G1 X124.25 Y99.749 E39.83272
G1 X124.831 Y99.749 E39.86657
G1 X124.978 Y99.774 E39.87523
G1 X125.299 Y99.903 E39.89537
G1 X125.424 Y99.981 E39.90393
G1 X125.742 Y100.293 E39.92986
G1 X125.827 Y100.414 E39.93845
G1 X125.962 Y100.729 E39.95841
G1 X126 Y100.92 E39.96973
G1 X125.995 Y124.123 E41.32
G1 X125.963 Y124.265 E41.32848
G1 X125.827 Y124.583 E41.34862
G1 X125.741 Y124.705 E41.35728
G1 X125.458 Y124.987 E41.38055
G1 X125.295 Y125.096 E41.39196
G1 X125.021 Y125.21 E41.40926
G1 X124.829 Y125.248 E41.42066
G1 X121.626 Y125.243 E41.60702
G1 X121.482 Y125.211 E41.61561
G1 X121.202 Y125.095 E41.63326
G1 X121.076 Y125.016 E41.64191
G1 X120.761 Y124.706 E41.66766
G1 X120.652 Y124.544 E41.679
G1 X120.538 Y124.269 E41.69629
G1 X120.5 Y124.077 E41.70771
G1 X120.5 Y110.248 E42.51246
G1 X109.5 Y110.248 E43.15263
G1 X109.5 Y124.077 E43.95738
G1 X109.462 Y124.269 E43.96879
G1 X109.347 Y124.547 E43.98627
G1 X109.267 Y124.672 E43.99491
G1 X108.957 Y124.988 E44.02066
G1 X108.797 Y125.095 E44.03191
G1 X108.478 Y125.223 E44.05188
G1 X108.332 Y125.248 E44.06053
G1 X105.126 Y125.243 E44.24707
G1 X104.984 Y125.212 E44.25557
G1 X104.666 Y125.075 E44.27571
G1 X104.544 Y124.989 E44.28437
G1 X104.261 Y124.707 E44.30763
G1 X104.152 Y124.544 E44.31905
G1 X104.038 Y124.269 E44.33634
G1 X104 Y124.077 E44.34776
G1 X104 Y100.92 E45.69536
G1 X104.038 Y100.729 E45.70668
G1 X104.173 Y100.414 E45.72664
G1 X104.258 Y100.293 E45.73523
G1 X104.576 Y99.981 E45.76116
G1 X104.701 Y99.903 E45.76972
G1 X105.022 Y99.774 E45.78986
G1 X105.169 Y99.749 E45.79852
G1 X105.75 Y99.749 E45.83237
G1 X105.75 Y68.992 E47.62223
G1 X105.766 Y68.466 E47.65286
G1 X105.807 Y67.976 E47.6815
G1 X105.873 Y67.498 E47.70955
G1 X105.979 Y66.953 E47.74186
G1 X106.105 Y66.463 E47.77133
G1 X106.258 Y65.977 E47.80097
G1 X106.428 Y65.523 E47.82922
G1 X106.627 Y65.068 E47.85807
G1 X106.823 Y64.683 E47.88324
M204 S2500
G1 X107.268 Y64.909 F7200
M204 S2000
G1 F3000
G1 X107.816 Y64.003 E47.94488
G1 X108.096 Y63.623 E47.97233
G1 X108.392 Y63.264 E47.9994
G1 X108.739 Y62.886 E48.02928
G1 X109.086 Y62.55 E48.05734
G1 X109.439 Y62.243 E48.08461
G1 X109.817 Y61.949 E48.11247
G1 X110.213 Y61.674 E48.14053
G1 X110.635 Y61.415 E48.16936
G1 X111.048 Y61.192 E48.19663
G1 X111.487 Y60.985 E48.2249
G1 X111.931 Y60.805 E48.25278
G1 X112.373 Y60.652 E48.28002
G1 X112.837 Y60.52 E48.30807
G1 X113.302 Y60.415 E48.3358
G1 X113.8 Y60.331 E48.36519
G1 X114.276 Y60.279 E48.39308
G1 X114.744 Y60.253 E48.42033
G1 X115.253 Y60.253 E48.45
G1 X116.17 Y60.328 E48.50349
G1 X116.693 Y60.414 E48.53436
G1 X117.15 Y60.517 E48.56163
G1 X117.604 Y60.645 E48.58908
G1 X118.485 Y60.973 E48.64376
G1 X118.965 Y61.199 E48.67464
G1 X119.374 Y61.42 E48.7017
G1 X119.773 Y61.665 E48.72894
G1 X120.195 Y61.958 E48.75882
G1 X120.561 Y62.243 E48.78588
G1 X120.915 Y62.551 E48.81313
G1 X121.283 Y62.909 E48.843
G1 X121.6 Y63.254 E48.87027
G1 X121.898 Y63.615 E48.89752
G1 X122.182 Y64 E48.92537
G1 X122.446 Y64.403 E48.95342
G1 X122.696 Y64.836 E48.9825
G1 X122.918 Y65.275 E49.01115
G1 X123.106 Y65.704 E49.0384
G1 X123.273 Y66.149 E49.06607
G1 X123.529 Y67.048 E49.12044
G1 X123.633 Y67.574 E49.15164
G1 X123.697 Y68.037 E49.17888
G1 X123.736 Y68.501 E49.20595
G1 X123.75 Y68.996 E49.23477
G1 X123.75 Y100.249 E51.05352
G1 X124.852 Y100.258 E51.11766
G1 X125.122 Y100.381 E51.13492
G1 X125.368 Y100.626 E51.15514
G1 X125.5 Y100.945 E51.1752
G1 X125.5 Y124.052 E52.51994
G1 X125.368 Y124.371 E52.54
G1 X125.122 Y124.616 E52.56023
G1 X124.852 Y124.739 E52.57749
G1 X121.696 Y124.748 E52.76114
G1 X121.378 Y124.616 E52.7812
G1 X121.132 Y124.371 E52.80142
G1 X121.01 Y124.101 E52.81868
G1 X121 Y109.748 E53.65391
G1 X109 Y109.748 E54.35226
